src/assets/selectIcons/strumento_11.svg

<svg xmlns="http://www.w3.org/2000/svg" viewBox="0 0 512 512" style="height: 512px; width: 512px;"><path d="M0 0h512v512H0z" fill="#000" fill-opacity="1"></path><g class="" transform="translate(0,0)" style=""><path d="M417.186 30.744c12.997 11.133 42.59 56.346 39.306 97.635-1.062 43.45-8.042 83.123-20.326 115.91l-53.443 63.673c-11.52 28.003-20.44 60.487-33.024 84.76l-15.93-8.383c13.343-29.754 23.773-60.04 33.152-85.55l53.416-63.644c27.66-74.695 20.835-130.908 2.615-166.083-46.748-89.71-131.486 12.928-167.7 64.822l-95.968 132.588s9.633 11.59 16.127 19.236c14.846-20.453 67.174-89.815 104.817-133.747 27.56-32.168 71.878-85.727 102.04-69.326 8.757 4.65 9.267 9.775 14.37 27.263 5.104 17.49 4.986 106.234-14.238 145.098l-30.47 38.74-31.23 97.5 21.19 17.35 19.985-3.47 51.7-71.854-16.33 59.623-7.423 27.404-10.047 4.75 26.957 5.345 5.518-5.537c8.46-13.59 35.28-53.34 44.082-83.32l4.414-82.33c27.852-64.092 49.867-167.234-21.46-219.372-10.932-6.942-10.954-6.95-22.102-9.082zm-55.82 73.03c-23.088 10.194-39.402 27.09-66.65 58.675-43.976 50.97 0 0-104.378 133.34 8.856 3.515 21.662 8.974 21.662 8.974 45.562-49.32 113.515-196.82 184.64-194.864-1.83-3.83-4.207-6.543-6.68-8.35-9.062-5.913-19.99-2.063-28.593 2.225zm-211.68 174.828L18 460.734V494h57.52l128.47-177.686-32.297-11.544z" fill="#fff" fill-opacity="1"></path></g></svg>

<?xml version="1.0" encoding="UTF-8" standalone="no"?>
<!DOCTYPE svg PUBLIC "-//W3C//DTD SVG 1.1//EN" "http://www.w3.org/Graphics/SVG/1.1/DTD/svg11.dtd">
<svg width="100%" height="100%" viewBox="0 0 512 512" version="1.1" xmlns="http://www.w3.org/2000/svg" xmlns:xlink="http://www.w3.org/1999/xlink" xml:space="preserve" xmlns:serif="http://www.serif.com/" style="fill-rule:evenodd;clip-rule:evenodd;stroke-linejoin:round;stroke-miterlimit:2;">
    <rect x="0" y="0" width="512" height="512" style="fill-rule:nonzero;"/>
    <g>
        <path d="M417.186,30.744C430.183,41.877 459.776,87.09 456.492,128.379C455.43,171.829 448.45,211.502 436.166,244.289L382.723,307.962C371.203,335.965 362.283,368.449 349.699,392.722L333.769,384.339C347.112,354.585 357.542,324.299 366.921,298.789L420.337,235.145C447.997,160.45 441.172,104.237 422.952,69.062C376.204,-20.648 291.466,81.99 255.252,133.884L159.284,266.472C159.284,266.472 168.917,278.062 175.411,285.708C190.257,265.255 242.585,195.893 280.228,151.961C307.788,119.793 352.106,66.234 382.268,82.635C391.025,87.285 391.535,92.41 396.638,109.898C401.742,127.388 401.624,216.132 382.4,254.996L351.93,293.736L320.7,391.236L341.89,408.586L361.875,405.116L413.575,333.262L397.245,392.885L389.822,420.289L379.775,425.039L406.732,430.384L412.25,424.847C420.71,411.257 447.53,371.507 456.332,341.527L460.746,259.197C488.598,195.105 510.613,91.963 439.286,39.825C428.354,32.883 428.332,32.875 417.184,30.743L417.186,30.744ZM361.366,103.774C338.278,113.968 321.964,130.864 294.716,162.449C250.74,213.419 294.716,162.449 190.338,295.789C199.194,299.304 212,304.763 212,304.763C257.562,255.443 325.515,107.943 396.64,109.899C394.81,106.069 392.433,103.356 389.96,101.549C380.898,95.636 369.97,99.486 361.367,103.774L361.366,103.774Z" style="fill:rgb(228,121,121);fill-rule:nonzero;"/>
        <path d="M149.686,278.602L171.693,304.77L203.99,316.314L75.52,494L18,494L18,460.734L149.686,278.602Z" style="fill:rgb(151,151,151);"/>
    </g>
</svg>
